icons/themes/default/workflow.svg

<svg viewBox="0 0 16 16" fill="none" xmlns="http://www.w3.org/2000/svg">
<path fill-rule="evenodd" clip-rule="evenodd" d="M2.89008 1.05957C3.16622 1.05957 3.39008 1.28343 3.39008 1.55957V6.01116C3.74915 6.10101 4.08059 6.28681 4.34672 6.55293C4.73304 6.93925 4.95008 7.46322 4.95008 8.00957C4.95008 8.55592 4.73304 9.07989 4.34672 9.46621C4.08059 9.73233 3.74915 9.91813 3.39008 10.008V14.4596C3.39008 14.7357 3.16622 14.9596 2.89008 14.9596C2.61393 14.9596 2.39008 14.7357 2.39008 14.4596V10.008C2.031 9.91812 1.69956 9.73233 1.43344 9.46621C1.04711 9.07989 0.830078 8.55592 0.830078 8.00957C0.830078 7.46322 1.04711 6.93925 1.43344 6.55293C1.69956 6.28681 2.031 6.10102 2.39008 6.01116V1.55957C2.39008 1.28343 2.61393 1.05957 2.89008 1.05957ZM2.14054 7.26004C2.33933 7.06125 2.60895 6.94957 2.89008 6.94957C3.17121 6.94957 3.44082 7.06125 3.63961 7.26004C3.8384 7.45883 3.95008 7.72844 3.95008 8.00957C3.95008 8.2907 3.8384 8.56031 3.63961 8.7591C3.44082 8.95789 3.17121 9.06957 2.89008 9.06957C2.60895 9.06957 2.33933 8.95789 2.14054 8.7591C1.94176 8.56031 1.83008 8.2907 1.83008 8.00957C1.83008 7.72844 1.94176 7.45883 2.14054 7.26004ZM7.40009 2.88957C7.40009 2.66998 7.45465 2.59712 7.47614 2.57563C7.49763 2.55413 7.57049 2.49957 7.79009 2.49957H13.5701C13.7897 2.49957 13.8625 2.55413 13.884 2.57563C13.9055 2.59712 13.9601 2.66998 13.9601 2.88957V5.55957C13.9601 5.77917 13.9055 5.85203 13.884 5.87352C13.8625 5.89501 13.7897 5.94957 13.5701 5.94957H7.79009C7.57049 5.94957 7.49763 5.89501 7.47614 5.87352C7.45465 5.85203 7.40009 5.77917 7.40009 5.55957V2.88957ZM7.79009 1.49957C7.41635 1.49957 7.04421 1.59335 6.76903 1.86852C6.49386 2.14369 6.40009 2.51583 6.40009 2.88957V5.55957C6.40009 5.93331 6.49386 6.30545 6.76903 6.58063C7.04421 6.8558 7.41635 6.94957 7.79009 6.94957H13.5701C13.9438 6.94957 14.316 6.8558 14.5911 6.58063C14.8663 6.30545 14.9601 5.93331 14.9601 5.55957V2.88957C14.9601 2.51583 14.8663 2.14369 14.5911 1.86852C14.316 1.59335 13.9438 1.49957 13.5701 1.49957H7.79009ZM7.40009 10.4596C7.40009 10.24 7.45465 10.1671 7.47614 10.1456C7.49763 10.1241 7.57049 10.0696 7.79009 10.0696H13.5701C13.7897 10.0696 13.8625 10.1241 13.884 10.1456C13.9055 10.1671 13.9601 10.24 13.9601 10.4596V13.1296C13.9601 13.3492 13.9055 13.422 13.884 13.4435C13.8625 13.465 13.7897 13.5196 13.5701 13.5196H7.79009C7.57049 13.5196 7.49763 13.465 7.47614 13.4435C7.45465 13.422 7.40009 13.3492 7.40009 13.1296V10.4596ZM7.79009 9.06958C7.41635 9.06958 7.04421 9.16335 6.76903 9.43853C6.49386 9.7137 6.40009 10.0858 6.40009 10.4596V13.1296C6.40009 13.5033 6.49386 13.8755 6.76903 14.1506C7.04421 14.4258 7.41635 14.5196 7.79009 14.5196H13.5701C13.9438 14.5196 14.316 14.4258 14.5911 14.1506C14.8663 13.8755 14.9601 13.5033 14.9601 13.1296V10.4596C14.9601 10.0858 14.8663 9.7137 14.5911 9.43853C14.316 9.16335 13.9438 9.06958 13.5701 9.06958H7.79009Z" fill="currentColor"/>
</svg>

<svg xmlns="http://www.w3.org/2000/svg" fill="none" viewBox="0 0 16 16">
  <path fill="currentColor" fill-rule="evenodd" d="M2.89 1.06a.5.5 0 0 1 .5.5V6.01a2.06 2.06 0 0 1 0 3.997v4.452a.5.5 0 0 1-1 0v-4.452a2.06 2.06 0 0 1 0-3.997V1.56a.5.5 0 0 1 .5-.5Zm-.75 6.2a1.06 1.06 0 1 1 1.5 1.5 1.06 1.06 0 0 1-1.5-1.5ZM7.4 2.89c0-.22.055-.293.076-.314.022-.022.094-.076.314-.076h5.78c.22 0 .293.054.314.076.021.021.076.094.076.314v2.67c0 .22-.055.292-.076.314-.021.021-.094.076-.314.076H7.79c-.22 0-.292-.055-.314-.076-.021-.022-.076-.095-.076-.314V2.89Zm.39-1.39c-.374 0-.746.093-1.021.369-.275.275-.369.647-.369 1.02v2.67c0 .374.094.746.369 1.022.275.275.647.369 1.021.369h5.78c.374 0 .746-.094 1.021-.37.275-.275.37-.647.37-1.02V2.89c0-.374-.095-.746-.37-1.021-.275-.276-.647-.37-1.02-.37H7.79Zm-.39 8.96c0-.22.055-.293.076-.314.022-.022.094-.076.314-.076h5.78c.22 0 .293.054.314.076.021.021.076.094.076.314v2.67c0 .22-.055.292-.076.313-.021.022-.094.077-.314.077H7.79c-.22 0-.292-.055-.314-.076-.021-.022-.076-.095-.076-.314v-2.67Zm.39-1.39c-.374 0-.746.093-1.021.369-.275.275-.369.647-.369 1.02v2.67c0 .374.094.747.369 1.022s.647.369 1.021.369h5.78c.374 0 .746-.094 1.021-.37.275-.274.37-.647.37-1.02v-2.67c0-.374-.095-.746-.37-1.021-.275-.276-.647-.37-1.02-.37H7.79Z" clip-rule="evenodd"/>
</svg>
